X: 21
T:Rambling in Circles
T:(double jig)
R:double jig
C:Tony Upton, 8/8/01
N:The title of this tune is a phrase that just miraculously popped into my
N:ead a couple of days before I wrote the tune.
M:6/8
L:1/8
Q:3/8=130
K:D
DAF dAF|~G3 FGE|DFA DFA|GFG EFE|
DAF dAF|fgf e2f|d2B cAG|FDD D2z:|
afa a>fa|bgb b2g|f/g/af f/g/af|gee e2g|
[1 agf gfe|fed edc|d2B ABG|FDD D2z:|
[2 agf gfe|fed e2c|dcB ABG|F>DD D3||
